X:1
T:The Palace of Light
T:The Palace of Light
T:Susie Elva Hatfield
T:Victor Murray Hatfield, 1914
T:Public Domain Courtesy of the Cyber Hymnal™
T:Public Domain Courtesy of the Cyber Hymnal™
C:Susie Elva Hatfield
Z:Public Domain
Z:Courtesy of the Cyber Hymnal™
%%score ( 1 2 ) ( 3 4 )
L:1/8
Q:1/4=75
M:6/8
K:G
V:1 treble 
V:2 treble 
V:3 bass 
V:4 bass 
V:1
 D/D/ | [GB]>[FB][EB] [DB][EB][GB] | [Fc][Ec][Fc] [Dc]2 [Dc]/[Dc]/ | [Ac]>[Gc][Fc] [Ec][Fc][Ec] | %4
w: 1.~When I’ve|whis- pered fare- well and for-|got- ten my care, When I’ve|sung my last car- ol and|
w: 2.~When the|bat- tle is o- ver, the|vic- to- ry won, When the|tri- als are end- ed, the|
w: 3.~I shall|sing a glad song when my|eyes shall be- hold Th- e|ci- ty of jas- per with|
 [DB][B,G][Ec] [DB]2 [DB]/[DB]/ | [Bd]>[Bd][Bd] [GB][Ac] (d/=f/) | %6
w: breathed my last prayer, I’ll be|met by my Sav- ior a- *|
w: jour- ney is done, I shall|look on a splen- dor more *|
w: por- tals of gold; Oh, the|joy I shall know, when the *|
 [ce]>[ce][ce] [^ce]2 [ce]/[ce]/ | d[Bd][GB] [Fc][Ec][Fc] | [GB]3- [GB]2 z || %9
w: wait- ing me there, In my|home in the Pal- ace of|Light. *|
w: bright than the sun, In my|home in the Pal- ace of|Light. *|
w: glor- ies un- fold, In my|home in the Pal- ace of|Light. *|
"^Refrain" D[DG][DA] [GB] [GB]2 | [EA][EG][CE] [B,D]3 | D[DG][DA] [GB] [GB]2 | %12
w: |||
w: Man- sions of glo- ry,|home o- ver there!|Re- gion ce- les- tial,|
w: |||
 [GA][^CE][GB] [FA]3 | [GB][Gd][GB] [DA][DG][=FB] | (AG)[CE] [B,D]3 | [B,D][DG][DA] [DB] [Gd]2 | %16
w: ||||
w: ra- diant and fair!|No pain or sor- row, no|gloom * or night;|Beau- ti- ful home- land,|
w: ||||
 [Fc][GB][DA] [DG]2 |] %17
w: |
w: Pal- ace of Light.|
w: |
V:2
 D/D/ | x6 | x6 | x6 | x6 | x5 B | x6 | d x5 | x6 || D x5 | x6 | D x5 | x6 | x6 | E2 x4 | x6 | %16
 x5 |] %17
V:3
 z | G,,3 G,2 z | A,,3 D,2 z | D,,3 D,2 z | G,,3 G,2 z | G,,3 E,2 z | C,3 [A,,G,]2 [^A,,G,] | %7
 ([B,,G,]G,E,) D,3 | (G,D,B,, G,,2) z || [G,B,][G,B,][G,C] [G,D] [G,D]2 | %10
 [C,C][C,C][C,G,] [G,,G,]3 | [G,B,][G,B,][G,C] [G,D] [G,D]2 | [A,^C]A,[A,,C] [D,D]3 | %13
 [G,D][G,B,][G,D] [G,C][G,B,][G,D] | [C,C]2 [C,G,] [G,,G,]3 | [G,,G,][B,,G,][D,F,] G, [G,B,]2 | %16
 [D,E][D,D][D,C] [G,,B,]2 |] %17
V:4
 x | x6 | x6 | x6 | x6 | x6 | x6 | x6 | x6 || x6 | x6 | x6 | x A, x4 | x6 | x6 | x3 G, x2 | x5 |] %17

